X:1
T:Love One Another
T:Love One Another
T:George W. Elderkin
T:Lanta Wilson Smith, 1905
T:Public Domain Courtesy of the Cyber Hymnal™
T:Public Domain Courtesy of the Cyber Hymnal™
C:George W. Elderkin
Z:Public Domain
Z:Courtesy of the Cyber Hymnal™
%%score ( 1 2 ) ( 3 4 )
L:1/8
Q:1/4=90
M:4/4
K:Eb
V:1 treble 
V:2 treble 
V:3 bass 
V:4 bass 
V:1
 B,>[EG] [EF]>[EG] E2 [EB]2 | B,>[EG] [EF]>[B,E] [B,D]4 | B,>[DA] [DG]>[DA] [DF]2 [Dc]2 | %3
w: 1.~Pre- cious words of Je- sus,|Reach- ing all our need!|Tru- est love the mes- sage|
w: 2.~Turn the tides of e- vil,|Cheer the faint- ing heart;|In the stress of bat- tle,|
w: 3.~Love re- flects the glo- ry|Of a light di- vine,|Down each gloom- y path- way,|
 [Fd]>[Ec] [DB]>[DA] [EG]4 | B,>[EG] [EF]>[EG] E2 [EB]2 | [EG]>[EG] [DA]>[EB] [Ec]4 | %6
w: Wrought in word and deed;|Cheer for all the lone- ly,|Com- fort for the sad,|
w: Bear a no- ble part;|Sin has o- pen war- fare|With the young and brave,|
w: Let the bright- ness shine;|Let such deeds of mer- cy|Mark your up- ward way,|
 [Ec]>[Ec] [Fd]>[Ec] [Ec]<[EB] E>[EA] | [EG]2 [DF]2 E4 ||"^Refrain" [Ge]4- [Ge]>G [FA]>[GB] | %9
w: Sac- red, bless- èd du- ty, Make some|o- ther glad.|Love * that ne- ver|
w: But your hand can res- cue, And your|love can save.||
w: That your path will bright- en, To the|per- fect day.||
 [Bd]2 [Ac]4 z2 | [Fd]2 [Ec]2 [DB]2 [DA]2 | [EG]6 z2 | [EG]>[EG] [EG]>[EG] [Dc]2 [DB]2 | %13
w: fail- eth,|Seek- eth not her|own;|Love that brings re- joic- ing|
w: ||||
w: ||||
 [DF]>[DF] [DF]>[DF] (A2 G2) | [Ec]>[Ec] [Ec]>[Ac] [GB]2 !fermata![Ge]2 | %15
w: Drives a- way the tears, *|Love that lives tri- umph- ant,|
w: ||
w: ||
"^riten." [Ae]>[Ad] [Ac]>[Ad] [Ge]4 |] %16
w: Thro’ e- ter- nal years!|
w: |
w: |
V:2
 B,3/2 x E2 x7/2 | B,3/2 x13/2 | B,3/2 x13/2 | x8 | B,3/2 x E2 x7/2 | x8 | x6 E3/2 x/ | x4 E4 || %8
 x11/2 G/ x2 | x8 | x8 | x8 | x8 | x4 E4 | x8 | x8 |] %16
V:3
 [E,G,]>[E,B,] [E,A,]>[E,B,] [E,G,]2 [E,G,]2 | [E,G,]>[E,B,] [E,A,]>[E,G,] A,4 | %2
w: ~ ~ ~ ~ ~ ~|~ ~ ~ ~ ~|
 [D,F,]>[B,,B,] [B,,B,]>[B,,B,] [B,,B,]2 [B,,A,]2 | [B,,A,]>[B,,A,] [B,,A,]>[B,,B,] [E,B,]4 | %4
w: ~ ~ ~ ~ ~ ~|~ ~ ~ ~ ~|
 [E,G,]>[E,B,] [E,A,]>[E,B,] [E,G,]2 [E,G,]2 | [E,B,]>[E,B,] [F,B,]>[G,B,] A,4 | %6
w: ~ ~ ~ ~ ~ ~|~ ~ ~ ~ ~|
 A,>A, A,>A, [E,A,]<[E,G,] [E,G,]>[A,,C] | [B,,B,]2 [B,,A,]2 [E,G,]4 || %8
w: ~ ~ ~ ~ ~ ~ ~ ~|~ ~ ~|
 [E,B,]>[E,B,] [E,B,]>[E,B,] [E,E]2 [E,E]2 | [A,E]>[A,E] [A,E]>[A,E] [A,E]2 z2 | %10
w: Love that ne- ver fail- eth,|Seek- eth not her own,|
 B,>B, B,>B, [B,,B,]2 [B,,B,]2 | [E,B,]>[E,G,] [E,C]>[E,B,] E,2 z2 | %12
w: Love that ne- ver fail- eth,|Seek- eth not her own;|
 [E,B,]>[E,B,] [E,B,]>[E,B,] [A,B,]2 [A,B,]2 | [A,B,]>[A,B,] [A,B,]>[A,B,] (C2 B,2) | %14
w: ||
 A,>A, A,>[A,E] [B,E]2 B,2 | [B,,B,]>[B,,B,] [B,,B,]>[B,,B,] [E,B,]4 |] %16
w: ||
V:4
 x8 | x4 (F,2 B,,2) | x8 | x8 | x8 | x4 A,4 | A,>A, A,>A, x4 | x8 || x8 | x8 | B,>B, B,>B, x4 | %11
 x4 E,2 x2 | x8 | x4 E,4 | A,>A, A,3/2 x B,2 x3/2 | x8 |] %16

